images/icons/source/decision-tree.svg

<svg width="48" height="48" viewBox="0 0 48 48" version="1.1" xmlns="http://www.w3.org/2000/svg" xmlns:xlink="http://www.w3.org/1999/xlink" xmlns:figma="http://www.figma.com/figma/ns">
<title>decision-tree</title>
<desc>Created using Figma</desc>
<g id="Canvas" transform="translate(145 -195)" figma:type="canvas">
<mask id="mask0_alpha" mask-type="alpha">
<path d="M -145 195L -97 195L -97 243L -145 243L -145 195Z" fill="#FFFFFF"/>
</mask>
<g id="decision-tree" style="mix-blend-mode:normal;" mask="url(#mask0_alpha)" figma:type="frame">
<g id="Vector" style="mix-blend-mode:normal;" figma:type="vector">
<use xlink:href="#path0_fill" transform="translate(-126.766 196.448)" fill="#3BB75E" style="mix-blend-mode:normal;"/>
</g>
<g id="Vector" style="mix-blend-mode:normal;" figma:type="vector">
<use xlink:href="#path1_fill" transform="translate(-135.038 209.603)" fill="#3BB75E" style="mix-blend-mode:normal;"/>
</g>
<g id="Vector" style="mix-blend-mode:normal;" figma:type="vector">
<use xlink:href="#path2_fill" transform="translate(-109.877 195)" fill="#3BB75E" style="mix-blend-mode:normal;"/>
</g>
<g id="Vector" style="mix-blend-mode:normal;" figma:type="vector">
<use xlink:href="#path3_fill" transform="translate(-143.907 208.477)" fill="#3BB75E" style="mix-blend-mode:normal;"/>
</g>
<g id="Vector" style="mix-blend-mode:normal;" figma:type="vector">
<use xlink:href="#path4_fill" transform="translate(-117.808 230.824)" fill="#3BB75E" style="mix-blend-mode:normal;"/>
</g>
</g>
</g>
<defs>
<path id="path0_fill" d="M 0.28725 10.4875C 0.474841 10.6751 0.709331 10.7689 0.943821 10.7689C 1.17831 10.7689 1.4128 10.6751 1.60039 10.4875L 5.39912 6.68881L 9.19785 10.4875C 9.38544 10.6751 9.61993 10.7689 9.85442 10.7689C 10.0889 10.7689 10.3234 10.6751 10.511 10.4875C 10.8627 10.1358 10.8627 9.54959 10.511 9.1744L 6.71226 5.37567L 10.511 1.57694C 10.8627 1.22521 10.8627 0.638984 10.511 0.263801C 10.1593 -0.0879332 9.57303 -0.0879332 9.19785 0.263801L 5.39912 4.06253L 1.57694 0.28725C 1.22521 -0.0644846 0.638984 -0.0644846 0.263801 0.28725C -0.0879332 0.638984 -0.0879332 1.22521 0.263801 1.60039L 4.06253 5.39912L 0.263801 9.19785C -0.0879332 9.54958 -0.0879336 10.1358 0.28725 10.4875Z"/>
<path id="path1_fill" d="M 36.768 5.28188L 31.7499 0.263801C 31.3981 -0.0879336 30.8119 -0.0879336 30.4367 0.263801L 25.4187 5.28188C 25.0669 5.63361 25.0669 6.21983 25.4187 6.59502C 25.6063 6.78261 25.8407 6.8764 26.0752 6.8764C 26.3097 6.8764 26.5911 6.78261 26.7787 6.59502L 30.2491 3.14802L 30.2491 5.00049C 30.2491 9.64338 26.4035 13.3952 21.7606 13.3952L 10.2237 13.3952C 4.5491 13.3952 0 18.0147 0 23.6893L 0 32.4827C 0 32.9985 0.422081 33.3972 0.937958 33.3972C 1.45383 33.3972 1.87592 32.9751 1.87592 32.4827L 1.87592 23.6893C 1.87592 19.0464 5.5574 15.2711 10.2003 15.2711L 21.7372 15.2711C 27.3884 15.2711 32.1016 10.6517 32.1016 5.00049L 32.1016 3.14802L 35.4783 6.59502C 35.6659 6.78261 35.8769 6.8764 36.1114 6.8764C 36.3459 6.8764 36.5804 6.78261 36.7445 6.59502C 37.1431 6.21983 37.1197 5.63361 36.768 5.28188Z"/>
<path id="path2_fill" d="M 5.93259 11.8652C 9.19199 11.8652 11.8652 9.21544 11.8652 5.93258C 11.8652 2.64973 9.21544 8.94506e-08 5.93259 8.94506e-08C 2.64973 8.94506e-08 7.15605e-07 2.69663 7.15605e-07 5.95603C 7.15605e-07 9.21544 2.67318 11.8652 5.93259 11.8652ZM 5.93259 1.87592C 8.18369 1.87592 10.0127 3.70493 10.0127 5.95603C 10.0127 8.20713 8.18369 10.0362 5.93259 10.0362C 3.68149 10.0362 1.85247 8.20713 1.85247 5.95603C 1.85247 3.70493 3.68149 1.87592 5.93259 1.87592Z"/>
<path id="path3_fill" d="M 9.1744 10.511C 9.33855 10.6751 9.57303 10.7689 9.80752 10.7689C 10.042 10.7689 10.2765 10.6751 10.4641 10.4875C 10.8158 10.1358 10.8158 9.54958 10.4641 9.1744L 6.66536 5.37567L 10.4641 1.57694C 10.8158 1.22521 10.8158 0.638983 10.4641 0.2638C 10.1124 -0.0879343 9.52614 -0.0879343 9.15095 0.2638L 5.35222 4.06253L 1.57694 0.310699C 1.22521 -0.0410353 0.638984 -0.0410353 0.263801 0.310699C -0.0879337 0.662433 -0.0879337 1.24866 0.263801 1.62384L 4.06253 5.42257L 0.263801 9.2213C -0.0879337 9.57303 -0.0879337 10.1593 0.263801 10.5344C 0.451392 10.722 0.685881 10.8158 0.920371 10.8158C 1.15486 10.8158 1.38935 10.722 1.57694 10.5344L 5.37567 6.73571L 9.1744 10.511Z"/>
<path id="path4_fill" d="M 10.4875 0.263801C 10.1358 -0.0879336 9.54959 -0.0879336 9.1744 0.263801L 5.37567 4.06253L 1.57694 0.263801C 1.22521 -0.0879336 0.638985 -0.0879336 0.263802 0.263801C -0.0879321 0.615535 -0.0879321 1.20176 0.263802 1.57694L 4.06253 5.37567L 0.263802 9.1744C -0.0879321 9.52614 -0.0879321 10.1124 0.263802 10.4875C 0.451394 10.6751 0.68588 10.7689 0.92037 10.7689C 1.15486 10.7689 1.38935 10.6751 1.57694 10.4875L 5.37567 6.68881L 9.1744 10.4875C 9.362 10.6751 9.59648 10.7689 9.83097 10.7689C 10.0655 10.7689 10.3 10.6751 10.4875 10.4875C 10.8393 10.1358 10.8393 9.54959 10.4875 9.1744L 6.68881 5.37567L 10.4875 1.57694C 10.8627 1.20176 10.8627 0.615535 10.4875 0.263801Z"/>
</defs>
</svg>

<svg width="48" height="48" viewBox="0 0 48 48" xmlns="http://www.w3.org/2000/svg" xmlns:xlink="http://www.w3.org/1999/xlink" xmlns:figma="http://www.figma.com/figma/ns"><title>decision-tree</title><desc>Created using Figma</desc><g transform="translate(145 -195)" figma:type="canvas"><mask id="a"><path d="M-145 195h48v48h-48v-48z" fill="#FFF"/></mask><g style="mix-blend-mode:normal" mask="url(#a)" figma:type="frame"><use xlink:href="#b" transform="translate(-126.766 196.448)" fill="#3BB75E" style="mix-blend-mode:normal" figma:type="vector"/><use xlink:href="#c" transform="translate(-135.038 209.603)" fill="#3BB75E" style="mix-blend-mode:normal" figma:type="vector"/><use xlink:href="#d" transform="translate(-109.877 195)" fill="#3BB75E" style="mix-blend-mode:normal" figma:type="vector"/><use xlink:href="#e" transform="translate(-143.907 208.477)" fill="#3BB75E" style="mix-blend-mode:normal" figma:type="vector"/><use xlink:href="#f" transform="translate(-117.808 230.824)" fill="#3BB75E" style="mix-blend-mode:normal" figma:type="vector"/></g></g><defs><path id="b" d="M.287 10.488a.926.926 0 0 0 .657.28.926.926 0 0 0 .656-.28l3.8-3.8 3.798 3.8a.926.926 0 0 0 .656.28.926.926 0 0 0 .657-.28c.352-.352.352-.938 0-1.314L6.712 5.376l3.799-3.8c.352-.35.352-.937 0-1.312-.352-.352-.938-.352-1.313 0L5.399 4.063 1.577.287C1.225-.064.639-.064.264.287c-.352.352-.352.938 0 1.313l3.799 3.8-3.8 3.798a.9.9 0 0 0 .024 1.29z"/><path id="c" d="M36.768 5.282L31.75.264c-.352-.352-.938-.352-1.313 0l-5.018 5.018c-.352.352-.352.938 0 1.313a.926.926 0 0 0 .656.281c.235 0 .516-.093.704-.281l3.47-3.447V5c0 4.643-3.845 8.395-8.488 8.395H10.224C4.549 13.395 0 18.015 0 23.69v8.794a.92.92 0 0 0 .938.914c.516 0 .938-.422.938-.914v-8.794c0-4.643 3.681-8.418 8.324-8.418h11.537c5.651 0 10.365-4.62 10.365-10.27V3.147l3.376 3.447a.875.875 0 0 0 .633.281.837.837 0 0 0 .634-.281.907.907 0 0 0 .023-1.313z"/><path id="d" d="M5.933 11.865a5.94 5.94 0 0 0 5.932-5.932A5.924 5.924 0 0 0 5.933 0C2.65 0 0 2.697 0 5.956c0 3.26 2.673 5.91 5.933 5.91zm0-9.99a4.083 4.083 0 0 1 4.08 4.081 4.083 4.083 0 0 1-4.08 4.08 4.083 4.083 0 0 1-4.08-4.08 4.083 4.083 0 0 1 4.08-4.08z"/><path id="e" d="M9.174 10.511a.906.906 0 0 0 1.29-.023c.352-.352.352-.938 0-1.314L6.665 5.376l3.8-3.8c.35-.35.35-.937 0-1.312-.353-.352-.939-.352-1.314 0L5.352 4.063 1.577.31C1.225-.041.639-.041.264.31c-.352.351-.352.938 0 1.313l3.799 3.799-3.8 3.798c-.35.352-.35.938 0 1.313a.926.926 0 0 0 .657.282.926.926 0 0 0 .657-.282l3.799-3.798 3.798 3.775z"/><path id="f" d="M10.488.264c-.352-.352-.938-.352-1.314 0L5.376 4.063l-3.8-3.8c-.35-.35-.937-.35-1.312 0-.352.353-.352.939 0 1.314l3.799 3.799-3.8 3.798c-.35.352-.35.938 0 1.314a.926.926 0 0 0 .657.28.926.926 0 0 0 .657-.28l3.799-3.8 3.798 3.8a.926.926 0 0 0 .657.28.926.926 0 0 0 .657-.28c.351-.352.351-.938 0-1.314l-3.8-3.798 3.8-3.8c.375-.374.375-.96 0-1.312z"/></defs></svg>
